!!!OTL: Wanren changqi fanshenge
!!!ARE: Asia, China,ÿGuizhou Zunyi
!! II, 151
!!!SCT: C1874
!!!YEM: Copyright 1995, estate of Helmut Schaffrath.
**kern
*ICvox
*Ivox
!! Mixed meters:  2/4; 3/4
*M3/4
*k[f#]
*G:
{16a
8a
16a
8b
8a
=1
8a
8b
4a
=2
8g
8a
8g
8e
=3
8.dd
16b
4a}
=4
{8.dd
16b
8a
8dd
=5
8b
8a
8g
8e
=6
4.dd
8b
=7
2a}
=8
{8ff#
16B
8d
16g
8e
16e
16g
=9
16e
16g
16d
16e
4g}
=10
{16a
8a
16b
16b
16a
8g
=11
16g
16d
16g
16e
4d}
=12
{16d
16d
16g
16e
4g
=13
8g
8a
8e
8e
4d}
=14
*M2/4
{8.dd
16gg
8ee
8gg
=15
[2dd
=16
2dd]}
=17
{16g
8g
16b
8g
16a
16g
=18
8b
16a
16b
4a
=19
8g
8a
8g
8e
=20
8.dd
16b
4a}
=21
{8.dd
16b
8a
8dd
=22
8b
8a
8g
8e
=23
4.dd
8b
=24
2a}
=25
{16g
8g
16d
16e
16e
8g
=26
16e
16g
16d
16e
4g
=27
16b
8b
16b
16b
16a
8g
=28
16g
16d
16g
16e
4d}
=29
{16d
16d
16g
16e
4g
=30
16g
16a
16g
16e
4d}
=31
{8.dd
16gg
8ee
8gg
=32
[2dd
=33
2dd]}
==
!!!AGN: Haozi, Haoyang haozi. Qianghuoqiang
!! Tuzu
!!!AMT: irregular
!!!AIN: vox
!!!EED: Helmut Schaffrath
!!!EEV: 1.0
*-
!!!ONB: Tied note syntax fixed by Craig Sapp, 2004/05/03/
